layanan/assets/img/img-systemdev/newlayout/icon-scitem1.svg

<?xml version="1.0" encoding="UTF-8"?>
<svg width="53px" height="38px" viewBox="0 0 53 38" version="1.1" xmlns="http://www.w3.org/2000/svg" xmlns:xlink="http://www.w3.org/1999/xlink">
    <!-- Generator: Sketch 52.1 (67048) - http://www.bohemiancoding.com/sketch -->
    <title>money</title>
    <desc>Created with Sketch.</desc>
    <g id="Page-1" stroke="none" stroke-width="1" fill="none" fill-rule="evenodd">
        <g id="Web-Sistem---Landing-Page-" transform="translate(-190.000000, -5012.000000)">
            <g id="money" transform="translate(190.000000, 5012.000000)">
                <path d="M40,37.5 C46.627417,37.5 52,32.127417 52,25.5 C52,18.872583 46.7730181,17.1318182 40.1456011,17.1318182 C33.5181841,17.1318182 28,18.872583 28,25.5 C28,32.127417 33.372583,37.5 40,37.5 Z" id="Oval-Copy-25" fill="#FFCA13"></path>
                <path d="M52.8523089,20.143508 C52.5780255,18.8476651 51.1749602,17.8046697 48.6325637,17.0355923 C46.5015924,16.3929385 43.8220541,16.0136674 40.8682325,15.9504556 L40.5833997,3.96127563 C40.1930732,2.78132118 38.790008,1.8226082 36.4164013,1.10620729 C34.0427946,0.389806378 30.9518312,0 27.692078,0 C24.4428742,0 21.3730096,0.389806378 19.0521497,1.10620729 C17.142715,1.69618451 14.8535032,2.79185649 14.8535032,4.67767654 C14.8535032,4.79356492 14.8640525,4.9094533 14.8851513,5.02534169 L15.0011943,9.82944191 C14.2205414,9.68194761 13.4293392,9.60820046 12.6275876,9.60820046 C5.66500796,9.60820046 0,15.2656606 0,22.2189636 C0,29.1828018 5.64390924,34.8297267 12.6170382,34.8297267 C15.5181131,34.8297267 18.334793,33.8288724 20.5818073,32.0062642 C22.5650876,32.4698178 24.8964968,32.7226651 27.3650478,32.7437358 C27.9030653,35.6620159 34.2432325,37 40.1508758,37 C43.4000796,37 46.4593949,36.5996583 48.8013535,35.8832574 C50.7318869,35.2932802 53,34.1870729 53,32.3012528 L52.8523089,20.143508 Z M19.642914,3.12898633 C21.7738854,2.47579727 24.6327627,2.1070615 27.6709793,2.1070615 C30.6775478,2.1070615 33.6419188,2.47579727 35.7939889,3.12898633 C38.09375,3.82431663 38.5895701,4.54071754 38.5895701,4.68821185 C38.5895701,4.83570615 38.09375,5.55210706 35.7939889,6.24743736 C33.6524682,6.89009112 30.6880971,7.26936219 27.6815287,7.26936219 C24.7699045,7.26936219 22.0059713,6.93223235 19.9066481,6.32118451 C17.638535,5.66799544 16.9950239,4.94105923 16.9422771,4.70928246 C16.9422771,4.69874715 16.9317277,4.68821185 16.9211783,4.67767654 C16.9211783,4.45643508 17.6279857,3.75056948 19.642914,3.12898633 Z M38.7583599,7.2904328 L38.7583599,9.92425968 C38.6423169,10.1033599 38.5895701,10.3035308 38.5895701,10.5142369 C38.5895701,10.6511959 38.09375,11.3781321 35.8045382,12.0734624 C33.6630175,12.7266515 30.6986465,13.0953872 27.692078,13.0953872 C25.0863854,13.0953872 22.5334395,12.8214692 20.5079618,12.3052392 C20.4763137,12.2947039 20.4446656,12.2947039 20.4235669,12.2841686 C19.4319268,11.4940205 18.3136943,10.8619021 17.1321656,10.4194191 L17.0583201,7.44846241 C17.7862261,7.81719818 18.5457803,8.11218679 19.3369825,8.32289294 C21.6261943,8.98661731 24.5905653,9.34481777 27.7026274,9.34481777 C30.9623806,9.34481777 34.0533439,8.95501139 36.4164013,8.23861048 C37.2181529,8.02790433 38.0093551,7.70130979 38.7583599,7.2904328 Z M19.6956608,29.9834852 C15.4020701,33.8920843 8.74542197,33.5760251 4.84215764,29.2881549 C0.938893312,25.0002847 1.24482484,18.3525057 5.53841561,14.4544419 C7.47949841,12.6950456 10.0007962,11.715262 12.6170382,11.715262 C13.6719745,11.715262 14.7163615,11.8732916 15.7291003,12.1788155 C17.1005175,12.6002278 18.3769904,13.3060934 19.4635748,14.2542711 C21.2358678,15.76082 22.4490446,17.8257403 22.9237659,20.1013667 C23.0609076,20.796697 23.1347532,21.5130979 23.1347532,22.2189636 C23.1453025,25.179385 21.8899283,28.0028474 19.6956608,29.9834852 Z M22.375199,30.215262 C23.2296975,29.1722665 23.9154061,28.0028474 24.4006768,26.7491458 C25.307922,26.8228929 26.2573646,26.8755695 27.2384554,26.8861048 C27.2173567,27.0125285 27.2173567,27.1284169 27.2384554,27.2548405 L27.2806529,30.6472096 C25.6455016,30.626139 24.0103503,30.48918 22.375199,30.215262 Z M25.191879,20.965262 C25.8142914,21.0074032 26.4578025,21.0284738 27.1224124,21.0390091 C27.1329618,21.1127563 27.1540605,21.1865034 27.1751592,21.2602506 L27.2173567,24.768508 C26.4578025,24.7579727 25.7087978,24.7263667 25.0019904,24.6736902 C25.1602309,23.8624715 25.2446258,23.0301822 25.2446258,22.2084282 C25.2446258,21.7975513 25.2235271,21.3866743 25.191879,20.965262 Z M27.7659236,18.9424829 C27.7342755,18.9424829 27.7131768,18.9424829 27.6815287,18.9424829 C26.6582404,18.9424829 25.687699,18.9003417 24.7804538,18.8265945 C24.3901274,17.4253986 23.7466162,16.0979499 22.9026672,14.9074601 C24.4850717,15.107631 26.0885748,15.2129841 27.6815287,15.2129841 C30.9412818,15.2129841 34.0322452,14.8231777 36.3953025,14.1067768 C37.2181529,13.875 37.9988057,13.5484055 38.7478105,13.1375285 L38.7478105,15.9504556 C36.1104697,16.0242027 33.6313694,16.3613326 31.6586385,16.9197039 C29.8019506,17.4464692 28.504379,18.1207289 27.7659236,18.9424829 Z M29.2217357,20.5122437 C29.4010748,20.1856492 30.1922771,19.5429954 32.2494029,18.9740888 C34.317078,18.3946469 37.0071656,18.0785877 39.8343949,18.0785877 L39.9187898,18.0785877 C42.9359076,18.0785877 45.8897293,18.4262528 48.03125,19.0794419 C50.2466162,19.7537016 50.7846338,20.4279613 50.8162818,20.6070615 L50.8162818,20.6175968 C50.8057325,20.7756264 50.2888137,21.5025626 47.9468551,22.1978929 C45.7842357,22.8405467 42.9253583,23.1882118 39.9187898,23.1882118 C37.1232086,23.1882118 34.433121,22.8721526 32.3654459,22.3137813 C30.3821656,21.7764806 29.5276672,21.1548975 29.2744825,20.796697 C29.2744825,20.7018793 29.2533838,20.6070615 29.2217357,20.5122437 Z M50.8901274,32.2907175 C50.8901274,32.4382118 50.4259554,33.1651481 48.1789411,33.8604784 C46.026871,34.5242027 43.178543,34.8929385 40.1403264,34.8929385 C37.0915605,34.8929385 34.2537818,34.534738 32.1333599,33.8920843 C30.1184315,33.2705011 29.4432723,32.5751708 29.4432723,32.3433941 C29.4432723,32.3328588 29.4432723,32.3328588 29.4432723,32.3223235 L29.4327229,31.6796697 L29.4010748,29.2986902 C30.2450239,29.7095672 31.120621,30.0256264 32.0278662,30.2468679 C34.2432325,30.8263098 37.0388137,31.142369 39.9187898,31.142369 C43.178543,31.142369 46.2378583,30.7525626 48.6009156,30.0361617 C49.3710191,29.804385 50.2571656,29.4883257 50.8901274,29.0774487 L50.8901274,32.2907175 Z M50.7529857,26.4541572 C50.7529857,26.6016515 50.267715,27.3180524 47.9996019,28.0133827 C45.8369825,28.6665718 42.9675557,29.0247722 39.9082404,29.0247722 C34.1693869,29.0247722 30.2661226,27.75 29.3588774,26.7386105 L29.3166799,23.4094533 C31.8063296,24.7052961 35.9944268,25.2952733 39.9187898,25.2952733 C43.1257962,25.2952733 46.1745621,24.9160023 48.5270701,24.220672 C49.3499204,23.9888952 50.1411226,23.672836 50.9006768,23.261959 L50.9006768,25.8957859 C50.8901274,26.0538155 50.7529857,26.243451 50.7529857,26.4541572 Z" id="Shape" fill="#000000" fill-rule="nonzero"></path>
                <circle id="Oval" fill="#FFCA13" cx="12.5" cy="22.5" r="6.5"></circle>
                <path d="M13,15 C9.12878788,15 6,18.1393939 6,22 C6,25.8606061 9.13939394,29 13,29 C16.8606061,29 20,25.8606061 20,22 C19.9893939,18.1393939 16.8606061,15.0106061 13,15 Z M13,26.8893939 C10.3060606,26.8893939 8.12121212,24.7045455 8.12121212,22.0106061 C8.12121212,19.3166667 10.3060606,17.1318182 13,17.1318182 C15.6939394,17.1318182 17.8787879,19.3166667 17.8787879,22.0106061 C17.8787879,24.7045455 15.6939394,26.8893939 13,26.8893939 Z" id="Shape" fill="#000000" fill-rule="nonzero"></path>
            </g>
        </g>
    </g>
</svg>

<svg id="Layer_1" data-name="Layer 1" xmlns="http://www.w3.org/2000/svg" viewBox="0 0 53 37.5"><path d="M40,37.5a12,12,0,0,0,12-12c0-6.63-5.23-8.37-11.85-8.37S28,18.87,28,25.5A12,12,0,0,0,40,37.5Z" transform="translate(0 0)" style="fill:#ffca13;fill-rule:evenodd"/><path d="M52.85,20.14c-.27-1.29-1.68-2.34-4.22-3.1A29.3,29.3,0,0,0,40.87,16L40.58,4c-.39-1.18-1.79-2.14-4.16-2.85A31.3,31.3,0,0,0,27.69,0a30.38,30.38,0,0,0-8.64,1.11c-1.91.59-4.2,1.68-4.2,3.57a1.45,1.45,0,0,0,0,.35L15,9.83a12.61,12.61,0,1,0-2.38,25,12.66,12.66,0,0,0,8-2.82,31.83,31.83,0,0,0,6.79.73C27.9,35.66,34.24,37,40.15,37a30.53,30.53,0,0,0,8.65-1.12c1.93-.59,4.2-1.69,4.2-3.58Zm-33.21-17a28.73,28.73,0,0,1,8-1,29.68,29.68,0,0,1,8.12,1c2.3.69,2.8,1.41,2.8,1.56s-.5.86-2.8,1.56a29.94,29.94,0,0,1-8.11,1,29,29,0,0,1-7.77-.95c-2.27-.65-2.91-1.38-3-1.61l0,0C16.92,4.46,17.63,3.75,19.64,3.13ZM38.76,7.29V9.92a1,1,0,0,0-.17.59c0,.14-.5.87-2.79,1.56a29.14,29.14,0,0,1-8.11,1,30.51,30.51,0,0,1-7.18-.79l-.09,0a12,12,0,0,0-3.29-1.86l-.07-3a11.65,11.65,0,0,0,2.28.87,30.94,30.94,0,0,0,8.36,1,31.2,31.2,0,0,0,8.72-1.1A10.45,10.45,0,0,0,38.76,7.29ZM19.7,30a10.49,10.49,0,1,1-4-17.8,10.3,10.3,0,0,1,3.73,2.07,10.45,10.45,0,0,1,3.46,5.85,10.81,10.81,0,0,1,.21,2.12A10.38,10.38,0,0,1,19.7,30Zm2.68.24a12.86,12.86,0,0,0,2-3.47c.91.07,1.86.13,2.84.14a1.09,1.09,0,0,0,0,.36l0,3.4A32.43,32.43,0,0,1,22.38,30.22ZM25.19,21c.62,0,1.27.06,1.93.07a.9.9,0,0,0,.06.22l0,3.51c-.76,0-1.51,0-2.22-.1a12.74,12.74,0,0,0,.24-2.46C25.24,21.8,25.22,21.39,25.19,21Zm2.58-2h-.09c-1,0-2,0-2.9-.11a12.56,12.56,0,0,0-1.88-3.92,38.34,38.34,0,0,0,4.78.3,31.57,31.57,0,0,0,8.72-1.1,11.19,11.19,0,0,0,2.35-1V16a29.61,29.61,0,0,0-7.09,1A8.2,8.2,0,0,0,27.77,18.94Zm1.45,1.57c.18-.32,1-1,3-1.54a29.26,29.26,0,0,1,7.58-.89h.09a29.55,29.55,0,0,1,8.11,1c2.22.67,2.75,1.35,2.79,1.53h0c0,.16-.53.88-2.87,1.58a29.56,29.56,0,0,1-8,1,30,30,0,0,1-7.55-.88c-2-.53-2.84-1.16-3.1-1.51A1,1,0,0,0,29.22,20.51ZM50.89,32.29c0,.15-.46.88-2.71,1.57a28.52,28.52,0,0,1-8,1,28.91,28.91,0,0,1-8-1c-2-.62-2.69-1.31-2.69-1.55v-.66l0-2.38a13.13,13.13,0,0,0,2.63.95,32.28,32.28,0,0,0,7.89.89A31.22,31.22,0,0,0,48.6,30a9.78,9.78,0,0,0,2.29-1Zm-.14-5.84c0,.15-.48.87-2.75,1.56a28.89,28.89,0,0,1-8.09,1c-5.74,0-9.64-1.27-10.55-2.28l0-3.33c2.49,1.3,6.67,1.89,10.6,1.89a31.38,31.38,0,0,0,8.61-1.08,11.55,11.55,0,0,0,2.37-1V25.9C50.89,26.05,50.75,26.24,50.75,26.45Z" transform="translate(0 0)"/><circle cx="12.5" cy="22.5" r="6.5" style="fill:#ffca13"/><path d="M13,15a7,7,0,1,0,7,7A7,7,0,0,0,13,15Zm0,11.89A4.88,4.88,0,1,1,17.88,22,4.89,4.89,0,0,1,13,26.89Z" transform="translate(0 0)"/></svg>
